X: 7
T: The Hag With The Money
R: jig
M: 6/8
L: 1/8
K: Dmaj
|:Adc A3 | AGE G3 | Adc A3 | GEA GED |
Adc A3 | AGE GFG | AGE cde | dcA GED:||
|:ABc d2e | fed edc | ABc dcd |eaa ged |
ABc d2e | fed efg | age cde | dcA GED :||


Tune 351	Setting 351

